public/img/fox.svg

<?xml version="1.0" encoding="utf-8"?>
<!-- Generator: Adobe Illustrator 23.0.6, SVG Export Plug-In . SVG Version: 6.00 Build 0)  -->
<svg version="1.1" id="Layer_1" xmlns="http://www.w3.org/2000/svg" xmlns:xlink="http://www.w3.org/1999/xlink" x="0px" y="0px"
	 viewBox="0 0 333 416.2" style="enable-background:new 0 0 333 416.2;" xml:space="preserve">
<style type="text/css">
	.st0{fill-rule:evenodd;clip-rule:evenodd;}
</style>
<g>
	<path class="st0" d="M118,144.3c31-13,66-13,97,0c16-49,47-79,90-103c16,53,35,132-24,165c11,33-12,38,30,61c-16,27-29,36-57,51
		c-19,9-39,17-59,25c-6,9-16,15-28,15s-23-6-28-15c-20-8-40-16-59-25c-29-15-41-24-58-51c42-23,19-28,31-61c-60-33-41-112-25-165
		C71,65.3,103,95.3,118,144.3z M139,332.3c2-3,5-5,9-6c-22-32-55-50-107-50C58,297.3,101,316.3,139,332.3z M185,326.3c4,1,7,3,9,6
		c38-16,81-35,98-56C240,276.3,207,294.3,185,326.3z M227,234.3c-6,0-11,5-11,11s5,11,11,11c5,0,10-5,10-11S232,234.3,227,234.3z
		 M254,227.3c0,13-1,29-10,34c-9,4-22,5-39,3C207,240.3,220,225.3,254,227.3z M298,59.3c13,46,26,110-23,137c-12-19-29-35-49-48
		C239,107.3,264,80.3,298,59.3z M107,234.3c6,0,10,5,10,11s-4,11-10,11s-11-5-11-11S101,234.3,107,234.3z M79,227.3c0,13,1,29,10,34
		c9,4,22,5,39,3C126,240.3,114,225.3,79,227.3z M35,59.3c-13,46-25,110,23,137c12-19,29-35,49-48C95,107.3,70,80.3,35,59.3z"/>
</g>
</svg>

<svg enable-background="new 0 0 333 416.2" viewBox="0 0 333 416.2" xmlns="http://www.w3.org/2000/svg"><path clip-rule="evenodd" d="m118 144.3c31-13 66-13 97 0 16-49 47-79 90-103 16 53 35 132-24 165 11 33-12 38 30 61-16 27-29 36-57 51-19 9-39 17-59 25-6 9-16 15-28 15s-23-6-28-15c-20-8-40-16-59-25-29-15-41-24-58-51 42-23 19-28 31-61-60-33-41-112-25-165 43 24 75 54 90 103zm21 188c2-3 5-5 9-6-22-32-55-50-107-50 17 21 60 40 98 56zm46-6c4 1 7 3 9 6 38-16 81-35 98-56-52 0-85 18-107 50zm42-92c-6 0-11 5-11 11s5 11 11 11c5 0 10-5 10-11s-5-11-10-11zm27-7c0 13-1 29-10 34-9 4-22 5-39 3 2-24 15-39 49-37zm44-168c13 46 26 110-23 137-12-19-29-35-49-48 13-41 38-68 72-89zm-191 175c6 0 10 5 10 11s-4 11-10 11-11-5-11-11 5-11 11-11zm-28-7c0 13 1 29 10 34 9 4 22 5 39 3-2-24-14-39-49-37zm-44-168c-13 46-25 110 23 137 12-19 29-35 49-48-12-41-37-68-72-89z" fill-rule="evenodd"/></svg>
